X: 41996
T: Walnut, The
R: strathspey
M: 4/4
K: Amixolydian
A2 c5/4f/ e/c5/4 A2|B5/4A/ E5/4A/ F/A5/4|A2 c5/4f/ e/c5/4 A2|B5/4A/ F/A5/4 E4|
[1 A2 c5/4f/ e/c5/4 A2|d5/4c/ B/A5/4 F2 E5/4F/|A2 c5/4f/ e/c5/4 A2|B5/4A/ F/A5/4 A4:|
[2 c2 A5/4F/ c2 A/F5/4|d5/4c/ B/A5/4 F2 E5/4F/|A2 c5/4f/ e/c5/4 A2|B5/4A/ F/A5/4 A4||
e2 g5/4d/ e2 a2|a5/4g/ e5/4d/ B/G5/4 G5/4d/|e2 g5/4d/ e2 a2|a5/4b/ a/g5/4 a4|
a5/4b/ a/g5/4 e/d5/4 d2|e5/4g/ e/d5/4 B/G5/4 G5/4B/|A2 c5/4f/ e/c5/4 A2|B5/4A/ F/A5/4 A4:|

